static/images/footer/twitter.svg

<svg width="36" height="36" fill="none" xmlns="http://www.w3.org/2000/svg"><path d="M33.69 9c-1.155.525-2.4.87-3.69 1.035a6.448 6.448 0 002.82-3.57 12.961 12.961 0 01-4.08 1.575C27.555 6.75 25.89 6 24 6c-3.525 0-6.405 2.88-6.405 6.435 0 .51.06 1.005.165 1.47A18.291 18.291 0 014.5 7.185a6.366 6.366 0 00-.87 3.225c0 2.235 1.125 4.215 2.865 5.34-1.065 0-2.055-.3-2.925-.75v.045a6.44 6.44 0 005.16 6.315 6.331 6.331 0 01-2.895.105c.81 2.535 3.165 4.425 6 4.47-2.19 1.74-4.965 2.76-7.995 2.76-.51 0-1.02-.03-1.53-.09a18.217 18.217 0 009.87 2.895c11.82 0 18.315-9.81 18.315-18.315 0-.285 0-.555-.015-.84 1.26-.9 2.34-2.04 3.21-3.345z" fill="#fff"/></svg>

<svg width="36" height="36" viewBox="0 0 36 36" fill="none" xmlns="http://www.w3.org/2000/svg">
<path d="M33.69 9C32.535 9.525 31.29 9.87 30 10.035C31.32 9.24 32.34 7.98 32.82 6.465C31.575 7.215 30.195 7.74 28.74 8.04C27.555 6.75 25.89 6 24 6C20.475 6 17.595 8.88 17.595 12.435C17.595 12.945 17.655 13.44 17.76 13.905C12.42 13.635 7.665 11.07 4.5 7.185C3.945 8.13 3.63 9.24 3.63 10.41C3.63 12.645 4.755 14.625 6.495 15.75C5.43 15.75 4.44 15.45 3.57 15C3.57 15 3.57 15 3.57 15.045C3.57 18.165 5.79 20.775 8.73 21.36C8.19 21.51 7.62 21.585 7.035 21.585C6.63 21.585 6.225 21.54 5.835 21.465C6.645 24 9 25.89 11.835 25.935C9.645 27.675 6.87 28.695 3.84 28.695C3.33 28.695 2.82 28.665 2.31 28.605C5.16 30.435 8.55 31.5 12.18 31.5C24 31.5 30.495 21.69 30.495 13.185C30.495 12.9 30.495 12.63 30.48 12.345C31.74 11.445 32.82 10.305 33.69 9Z" fill="white"/>
</svg>
